X:140
T:la Fricasse
A:Ile de France
O:France
M:4/4
L:1/8
Q:1/4=180
K:G
D2|G3ABABG|c4c2dc|
cB AB cB AG|AG FE D3D|
G3ABA BG|c6dc|cB AB cB AB|G4G2||
Bc|d2d2c2B2|c6Bc|
d2d2c2B2|c6Bc|d2d2c2B2|c2d2e2d2|
c2B2A2G2|AGFE D2||
